fs/cloud_add_20_regular.svg

<svg viewBox="0 0 20 20" fill="none" xmlns="http://www.w3.org/2000/svg" height="1em" width="1em">
  <path d="M10 2C12.8166 2 14.4145 3.92329 14.6469 6.24599L14.7179 6.24599C16.5306 6.24599 18 7.75792 18 9.62299C18 9.71829 17.9962 9.81267 17.9886 9.90598C17.6666 9.50435 17.2919 9.14686 16.8748 8.84404C16.5644 7.91106 15.7121 7.24599 14.718 7.24599L14.6469 7.24599C14.1332 7.24601 13.703 6.85673 13.6518 6.34554C13.4497 4.32493 12.1085 3 10 3C7.88606 3 6.55108 4.31588 6.34818 6.34547C6.29707 6.85669 5.86688 7.24601 5.3531 7.24599L5.28207 7.24599C4.02819 7.24599 3 8.30392 3 9.62299C3 10.9421 4.02819 12 5.28205 12H7.94761C7.86058 12.323 7.80097 12.6572 7.77144 13H5.28205C3.46942 13 2 11.4881 2 9.62299C2 7.82009 3.3731 6.34717 5.10199 6.25098L5.35314 6.24599C5.58687 3.90802 7.18335 2 10 2ZM13.5 18C15.9853 18 18 15.9853 18 13.5C18 11.0147 15.9853 9 13.5 9C11.0147 9 9 11.0147 9 13.5C9 15.9853 11.0147 18 13.5 18ZM13.5 11C13.7761 11 14 11.2239 14 11.5V13H15.5C15.7761 13 16 13.2239 16 13.5C16 13.7761 15.7761 14 15.5 14H14V15.5C14 15.7761 13.7761 16 13.5 16C13.2239 16 13 15.7761 13 15.5V14H11.5C11.2239 14 11 13.7761 11 13.5C11 13.2239 11.2239 13 11.5 13H13V11.5C13 11.2239 13.2239 11 13.5 11Z" fill="#212121"/>
</svg>

<svg viewBox="0 0 20 20" fill="none" xmlns="http://www.w3.org/2000/svg" height="1em" width="1em">
  <path d="M10 2c2.817 0 4.415 1.923 4.647 4.246h.07C16.532 6.246 18 7.758 18 9.623c0 .095-.004.19-.011.283a5.782 5.782 0 0 0-1.114-1.062c-.31-.933-1.163-1.598-2.157-1.598h-.071a1 1 0 0 1-.995-.9C13.45 4.325 12.109 3 10 3 7.886 3 6.551 4.316 6.348 6.345a1 1 0 0 1-.995.901h-.07C4.027 7.246 3 8.304 3 9.623 3 10.943 4.028 12 5.282 12h2.666a5.733 5.733 0 0 0-.177 1H5.282C3.469 13 2 11.488 2 9.623 2 7.82 3.373 6.347 5.102 6.251l.251-.005C5.587 3.908 7.183 2 10 2Zm3.5 16a4.5 4.5 0 1 0 0-9 4.5 4.5 0 0 0 0 9Zm0-7a.5.5 0 0 1 .5.5V13h1.5a.5.5 0 0 1 0 1H14v1.5a.5.5 0 0 1-1 0V14h-1.5a.5.5 0 0 1 0-1H13v-1.5a.5.5 0 0 1 .5-.5Z" fill="#212121"/>
</svg>
